assets/Musical keyboard/Flat/musical_keyboard_flat.svg

<svg width="32" height="32" viewBox="0 0 32 32" fill="none" xmlns="http://www.w3.org/2000/svg">
<path d="M2 9H31V28C31 29.1046 30.0726 30 28.9286 30H4.07143C2.92741 30 2 29.1046 2 28V9Z" fill="#9B9B9B"/>
<path d="M4 7C3.44772 7 3 7.44772 3 8V28C3 28.5523 3.44772 29 4 29H8C8.55228 29 9 28.5523 9 28V8C9 7.44772 8.55228 7 8 7H4ZM11 7C10.4477 7 10 7.44772 10 8V28C10 28.5523 10.4477 29 11 29H15C15.5523 29 16 28.5523 16 28V8C16 7.44772 15.5523 7 15 7H11ZM17 8C17 7.44772 17.4477 7 18 7H22C22.5523 7 23 7.44772 23 8V28C23 28.5523 22.5523 29 22 29H18C17.4477 29 17 28.5523 17 28V8ZM25 7C24.4477 7 24 7.44772 24 8V28C24 28.5523 24.4477 29 25 29H29C29.5523 29 30 28.5523 30 28V8C30 7.44772 29.5523 7 29 7H25Z" fill="#F4F4F4"/>
<path d="M8 8C8 7.44772 8.44772 7 9 7H10C10.5523 7 11 7.44772 11 8V21C11 21.5523 10.5523 22 10 22H9C8.44772 22 8 21.5523 8 21V8ZM15 8C15 7.44772 15.4477 7 16 7H17C17.5523 7 18 7.44772 18 8V21C18 21.5523 17.5523 22 17 22H16C15.4477 22 15 21.5523 15 21V8ZM23 7C22.4477 7 22 7.44772 22 8V21C22 21.5523 22.4477 22 23 22H24C24.5523 22 25 21.5523 25 21V8C25 7.44772 24.5523 7 24 7H23Z" fill="#533566"/>
<path d="M2 3C2 2.44772 2.46371 2 3.03571 2H29.9643C30.5363 2 31 2.44772 31 3V9H2V3Z" fill="#321B41"/>
</svg>

<svg xmlns="http://www.w3.org/2000/svg" width="32" height="32" fill="none"><path fill="#9B9B9B" d="M2 9h29v19c0 1.105-.927 2-2.071 2H4.07C2.927 30 2 29.105 2 28V9Z"/><path fill="#F4F4F4" d="M4 7a1 1 0 0 0-1 1v20a1 1 0 0 0 1 1h4a1 1 0 0 0 1-1V8a1 1 0 0 0-1-1H4Zm7 0a1 1 0 0 0-1 1v20a1 1 0 0 0 1 1h4a1 1 0 0 0 1-1V8a1 1 0 0 0-1-1h-4Zm6 1a1 1 0 0 1 1-1h4a1 1 0 0 1 1 1v20a1 1 0 0 1-1 1h-4a1 1 0 0 1-1-1V8Zm8-1a1 1 0 0 0-1 1v20a1 1 0 0 0 1 1h4a1 1 0 0 0 1-1V8a1 1 0 0 0-1-1h-4Z"/><path fill="#533566" d="M8 8a1 1 0 0 1 1-1h1a1 1 0 0 1 1 1v13a1 1 0 0 1-1 1H9a1 1 0 0 1-1-1V8Zm7 0a1 1 0 0 1 1-1h1a1 1 0 0 1 1 1v13a1 1 0 0 1-1 1h-1a1 1 0 0 1-1-1V8Zm8-1a1 1 0 0 0-1 1v13a1 1 0 0 0 1 1h1a1 1 0 0 0 1-1V8a1 1 0 0 0-1-1h-1Z"/><path fill="#321B41" d="M2 3c0-.552.464-1 1.036-1h26.928C30.536 2 31 2.448 31 3v6H2V3Z"/></svg>
